src/22x22/places/folder-gruvbox-original-yellow-books.svg

<?xml version="1.0" encoding="UTF-8"?>
<svg width="22" height="22" version="1" xmlns="http://www.w3.org/2000/svg">
 <rect x="1" y="8.5" width="20" height="12" rx="1" ry="1" opacity=".2"/>
 <path d="m1 16c0 0.554 0.446 1 1 1h18c0.554 0 1-0.446 1-1v-11c0-0.554-0.446-1-1-1h-9c-1.5 0-2-2-3.5-2h-5.5c-0.554 0-1 0.446-1 1" fill="#b57614"/>
 <rect x="1" y="7.5" width="20" height="12" rx="1" ry="1" opacity=".2"/>
 <rect x="3" y="6" width="16" height="8" rx="1" ry="1" fill="#f3deaa"/>
 <rect x="1" y="8" width="20" height="12" rx="1" ry="1" fill="#fabd2f"/>
 <path d="m2 2c-0.554 0-1 0.446-1 1v0.5c0-0.554 0.446-1 1-1h5.5c1.5 0 2 2 3.5 2h9c0.554 0 1 0.446 1 1v-0.5c0-0.554-0.446-1-1-1h-9c-1.5 0-2-2-3.5-2z" fill="#f3deaa" opacity=".1"/>
 <path d="m7 10c-2 0-2 1-2 1v4s0-1 2-1 3 2 3 2v-4s-1-2-3-2zm7 0c-2 0-3 2-3 2v4s1-2 3-2 2 1 2 1v-4s0-1-2-1zm-7 5c-2 0-2 1-2 1v1s0-1 2-1 3 2 3 2v-1s-1-2-3-2zm7 0c-2 0-3.0051 1.9927-3 2v1s1-2 3-2 2 1 2 1v-1s0-1-2-1z" fill="#473c29"/>
</svg>

<svg xmlns="http://www.w3.org/2000/svg" width="22" height="22" version="1">
 <rect style="opacity:0.2" width="20" height="12" x="1" y="8.5" rx="1" ry="1"/>
 <path style="fill:#b57614" d="M 1,16 C 1,16.554 1.446,17 2,17 H 20 C 20.554,17 21,16.554 21,16 V 5 C 21,4.446 20.554,4 20,4 H 11 C 9.5,4 9,2 7.5,2 H 2 C 1.446,2 1,2.446 1,3"/>
 <rect style="opacity:0.2" width="20" height="12" x="1" y="7.5" rx="1" ry="1"/>
 <rect style="fill:#f3deaa" width="16" height="8" x="3" y="6" rx="1" ry="1"/>
 <rect style="fill:#fabd2f" width="20" height="12" x="1" y="8" rx="1" ry="1"/>
 <path style="opacity:0.1;fill:#f3deaa" d="M 2,2 C 1.446,2 1,2.446 1,3 V 3.5 C 1,2.946 1.446,2.5 2,2.5 H 7.5 C 9,2.5 9.5,4.5 11,4.5 H 20 C 20.554,4.5 21,4.946 21,5.5 V 5 C 21,4.446 20.554,4 20,4 H 11 C 9.5,4 9,2 7.5,2 Z"/>
 <path style="fill:#473c29" d="m7 10c-2 0-2 1-2 1v4s0-1 2-1 3 2 3 2v-4s-1-2-3-2zm7 0c-2 0-3 2-3 2v4s1-2 3-2 2 1 2 1v-4s0-1-2-1zm-7 5c-2 0-2 1-2 1v1s0-1 2-1 3 2 3 2v-1s-1-2-3-2zm7 0c-2 0-3.005064 1.992688-3 2v1s1-2 3-2 2 1 2 1v-1s0-1-2-1z"/>
</svg>
